web/packages/design/src/ResourceIcon/assets/carta-dark.svg

<svg width="72" height="72" viewBox="0 0 72 72" fill="none" xmlns="http://www.w3.org/2000/svg">
<path d="M13.9065 41.7616C14.5819 42.0423 15.3065 42.1855 16.0379 42.1827C18.178 42.1827 20.0196 41.1862 21.0464 39.3208L19.2236 38.4699C18.9472 39.0033 18.5308 39.4514 18.0192 39.7662C17.5075 40.0809 16.9198 40.2505 16.3191 40.2567C14.5273 40.2567 12.7448 38.9501 12.7448 36.5613C12.7448 34.1176 14.6109 32.8845 16.1785 32.8845C16.7375 32.8803 17.2887 33.016 17.7819 33.2792C18.2751 33.5424 18.6946 33.9248 19.0022 34.3916L20.7847 33.3503C19.8314 31.6775 18.049 30.9607 16.1432 30.9607C13.4788 30.9607 10.5052 33.0446 10.5052 36.5923C10.4965 37.3247 10.6334 38.0515 10.9079 38.7306C11.1825 39.4097 11.5892 40.0275 12.1045 40.548C12.6185 41.0684 13.2311 41.481 13.9065 41.7616Z" fill="white"/>
<path fill-rule="evenodd" clip-rule="evenodd" d="M21.9096 36.5706C21.9096 39.7383 24.2018 42.1827 27.4207 42.1827C28.9053 42.1827 30.3042 41.5236 31.026 40.5646V41.8842H33.2274V31.2383H31.026V32.5543C30.3395 31.5895 28.9075 30.9607 27.4207 30.9607C24.1809 30.9607 21.9096 33.3402 21.9096 36.5706ZM31.0664 36.5778C31.0664 38.6329 29.6682 40.1615 27.6355 40.1615C25.5574 40.1615 24.1564 38.6112 24.1564 36.5439C24.1564 34.504 25.6029 32.9941 27.6355 32.9941C29.6675 32.9941 31.0664 34.5228 31.0664 36.5778Z" fill="white"/>
<path d="M44.3499 33.2948V41.8784H46.64V33.2948H48.9914V31.1684H46.64V28.0217H44.3715V31.1677H42.6554V33.2948H44.3499Z" fill="white"/>
<path fill-rule="evenodd" clip-rule="evenodd" d="M49.7593 36.5706C49.7593 39.7383 52.0466 42.1827 55.2683 42.1827C56.753 42.1827 58.1518 41.5236 58.8736 40.5646V41.8842H61.0772V31.2383H58.8736V32.5543C58.1872 31.5895 56.7551 30.9607 55.2683 30.9607C52.0278 30.9607 49.7593 33.3402 49.7593 36.5706ZM58.9162 36.5778C58.9162 38.6329 57.5151 40.1615 55.4832 40.1615C53.4058 40.1615 52.0069 38.6112 52.0069 36.5439C52.0069 34.504 53.4505 32.9941 55.4824 32.9941C57.5151 32.9941 58.9162 34.5228 58.9162 36.5778Z" fill="white"/>
<path d="M35.4952 31.221V41.8669H37.7853V36.9384C37.7853 34.1983 39.2317 32.9985 40.9428 33.1968V31.1381C40.6861 31.0761 40.423 31.0465 40.159 31.0516C38.9433 31.0516 38.0261 31.8758 37.5928 33.0706V31.221H35.4952Z" fill="white"/>
<path fill-rule="evenodd" clip-rule="evenodd" d="M0 20.0005V51.6164H72V20.0005H0ZM2.1632 49.4532V22.1637H69.8368V49.4532H2.1632Z" fill="white"/>
</svg>

<svg xmlns="http://www.w3.org/2000/svg" width="72" height="72" fill="none" viewBox="0 0 72 72"><path fill="#fff" d="M13.907 41.762c.675.28 1.4.423 2.13.42 2.141 0 3.983-.996 5.01-2.861l-1.823-.851a3.31 3.31 0 0 1-2.905 1.787c-1.792 0-3.574-1.307-3.574-3.696 0-2.443 1.866-3.676 3.434-3.676a3.35 3.35 0 0 1 2.823 1.507l1.783-1.042c-.954-1.673-2.736-2.39-4.642-2.39-2.664 0-5.638 2.085-5.638 5.632a5.53 5.53 0 0 0 3.401 5.17"/><path fill="#fff" fill-rule="evenodd" d="M21.91 36.57c0 3.168 2.292 5.613 5.51 5.613 1.485 0 2.884-.66 3.606-1.618v1.32h2.201V31.237h-2.201v1.316c-.686-.965-2.119-1.593-3.605-1.593-3.24 0-5.511 2.38-5.511 5.61m9.156.008c0 2.055-1.398 3.583-3.43 3.583-2.079 0-3.48-1.55-3.48-3.617 0-2.04 1.447-3.55 3.48-3.55s3.43 1.529 3.43 3.584" clip-rule="evenodd"/><path fill="#fff" d="M44.35 33.295v8.583h2.29v-8.583h2.351v-2.127H46.64v-3.146h-2.269v3.146h-1.716v2.127z"/><path fill="#fff" fill-rule="evenodd" d="M49.76 36.57c0 3.168 2.287 5.613 5.508 5.613 1.485 0 2.884-.66 3.606-1.618v1.32h2.203V31.237h-2.203v1.316c-.687-.965-2.119-1.593-3.606-1.593-3.24 0-5.509 2.38-5.509 5.61m9.156.008c0 2.055-1.4 3.583-3.433 3.583-2.077 0-3.476-1.55-3.476-3.617 0-2.04 1.444-3.55 3.475-3.55 2.033 0 3.434 1.529 3.434 3.584" clip-rule="evenodd"/><path fill="#fff" d="M35.495 31.221v10.646h2.29v-4.929c0-2.74 1.447-3.94 3.158-3.741v-2.059a3 3 0 0 0-.784-.086c-1.216 0-2.133.824-2.566 2.019v-1.85z"/><path fill="#fff" fill-rule="evenodd" d="M0 20v31.616h72V20.001zm2.163 29.453v-27.29h67.674v27.29z" clip-rule="evenodd"/></svg>
